public/assets/img/build2.svg

<svg width="69" height="74" viewBox="0 0 69 74" fill="none" xmlns="http://www.w3.org/2000/svg">
<path d="M11.8966 36.5089L10.3583 34.9658L8.67616 36.6533L11.0555 39.0402C11.2786 39.264 11.5811 39.3896 11.8966 39.3896C12.212 39.3896 12.5145 39.264 12.7376 39.0402L17.4963 34.2664L15.8141 32.5789L11.8966 36.5089Z" fill="#90A1AE"/>
<path d="M11.8966 48.4434L10.3583 46.9003L8.67616 48.5878L11.0555 50.9747C11.2786 51.1985 11.5811 51.3242 11.8966 51.3242C12.212 51.3242 12.5145 51.1985 12.7376 50.9747L17.4963 46.2009L15.8141 44.5134L11.8966 48.4434Z" fill="#90A1AE"/>
<path d="M11.8966 60.3779L10.3583 58.8348L8.67616 60.5223L11.0555 62.9093C11.2786 63.133 11.5811 63.2587 11.8966 63.2587C12.212 63.2587 12.5145 63.133 12.7376 62.9093L17.4963 58.1354L15.8141 56.4479L11.8966 60.3779Z" fill="#90A1AE"/>
<path d="M30.931 27.4554V20.2947C30.931 19.9781 30.8057 19.6746 30.5826 19.4508C30.3595 19.2269 30.0569 19.1012 29.7414 19.1012H10.7069C10.3914 19.1012 10.0888 19.2269 9.86568 19.4508C9.64258 19.6746 9.51724 19.9781 9.51724 20.2947V27.4554C9.51724 27.7719 9.64258 28.0755 9.86568 28.2993C10.0888 28.5231 10.3914 28.6488 10.7069 28.6488H29.7414C30.0569 28.6488 30.3595 28.5231 30.5826 28.2993C30.8057 28.0755 30.931 27.7719 30.931 27.4554ZM28.5517 26.2619H11.8966V21.4881H28.5517V26.2619Z" fill="#90A1AE"/>
<path d="M20.2241 32.2292H32.1207V34.6161H20.2241V32.2292Z" fill="#90A1AE"/>
<path d="M20.2241 37.003H35.6897V39.3899H20.2241V37.003Z" fill="#90A1AE"/>
<path d="M38.069 37.003H40.4483V39.3899H38.069V37.003Z" fill="#90A1AE"/>
<path d="M20.2241 44.1637H28.5517V46.5506H20.2241V44.1637Z" fill="#90A1AE"/>
<path d="M20.2241 56.0982H26.1724V58.4851H20.2241V56.0982Z" fill="#90A1AE"/>
<path d="M64.2414 45.3572H55.9138V44.1637C55.9138 42.8976 55.4124 41.6834 54.52 40.7881C53.6276 39.8928 52.4172 39.3899 51.1552 39.3899H49.9655V11.9405C49.9655 10.6744 49.4642 9.46017 48.5718 8.56491C47.6793 7.66965 46.469 7.16669 45.2069 7.16669H35.4708C35.2256 6.47102 34.7722 5.86833 34.1725 5.44107C33.5728 5.01381 32.8562 4.78285 32.1207 4.77979H30.8121C30.539 3.43084 29.8095 2.21808 28.7471 1.34697C27.6848 0.475867 26.3549 0 24.9828 0C23.6107 0 22.2808 0.475867 21.2184 1.34697C20.156 2.21808 19.4265 3.43084 19.1534 4.77979H17.8448C17.1093 4.78285 16.3927 5.01381 15.793 5.44107C15.1934 5.86833 14.7399 6.47102 14.4948 7.16669H4.75862C3.49656 7.16669 2.28618 7.66965 1.39377 8.56491C0.501353 9.46017 0 10.6744 0 11.9405V69.2262C0 70.4923 0.501353 71.7065 1.39377 72.6018C2.28618 73.497 3.49656 74 4.75862 74H64.2414C65.5034 74 66.7138 73.497 67.6062 72.6018C68.4986 71.7065 69 70.4923 69 69.2262V50.131C69 48.8649 68.4986 47.6506 67.6062 46.7554C66.7138 45.8601 65.5034 45.3572 64.2414 45.3572ZM66.6207 50.131V51.6824L52.9944 56.5637C52.7648 56.646 52.528 56.7128 52.2925 56.7821C52.1734 55.9314 51.752 55.1526 51.1058 54.589C50.4596 54.0254 49.6321 53.715 48.7759 53.715C47.9196 53.715 47.0922 54.0254 46.446 54.589C45.7998 55.1526 45.3783 55.9314 45.2592 56.7821C45.0213 56.7128 44.7834 56.6472 44.5562 56.5649L30.931 51.6824V50.131C30.931 49.4979 31.1817 48.8908 31.6279 48.4432C32.0741 47.9955 32.6793 47.7441 33.3103 47.7441H64.2414C64.8724 47.7441 65.4776 47.9955 65.9238 48.4432C66.37 48.8908 66.6207 49.4979 66.6207 50.131ZM49.9655 57.2917V59.6786C49.9655 59.9951 49.8402 60.2987 49.6171 60.5225C49.394 60.7463 49.0914 60.872 48.7759 60.872C48.4603 60.872 48.1578 60.7463 47.9346 60.5225C47.7115 60.2987 47.5862 59.9951 47.5862 59.6786V57.2917C47.5862 56.9752 47.7115 56.6716 47.9346 56.4478C48.1578 56.224 48.4603 56.0982 48.7759 56.0982C49.0914 56.0982 49.394 56.224 49.6171 56.4478C49.8402 56.6716 49.9655 56.9752 49.9655 57.2917ZM35.6897 18.4018L41.1454 23.875H35.6897V18.4018ZM34.5 26.2619H42.8276V41.0392C42.0652 41.9008 41.6422 43.0117 41.6379 44.1637V45.3572H33.3103C32.2584 45.3611 31.2375 45.7146 30.4071 46.3624C29.5767 47.0102 28.9836 47.9157 28.7207 48.9375H20.2241V51.3244H28.5517V60.872H20.2241V63.2589H28.5517V66.8393H7.13793V16.7143H33.3103V25.0685C33.3103 25.385 33.4357 25.6886 33.6588 25.9124C33.8819 26.1362 34.1845 26.2619 34.5 26.2619ZM53.5345 44.1637V45.3572H44.0172V44.1637C44.0172 43.5307 44.2679 42.9235 44.7141 42.4759C45.1603 42.0283 45.7655 41.7768 46.3966 41.7768H51.1552C51.7862 41.7768 52.3914 42.0283 52.8376 42.4759C53.2838 42.9235 53.5345 43.5307 53.5345 44.1637ZM17.8448 7.16669H20.2241C20.5397 7.16669 20.8422 7.04096 21.0654 6.81714C21.2885 6.59332 21.4138 6.28976 21.4138 5.97324C21.4138 5.02367 21.7898 4.11299 22.4591 3.44155C23.1284 2.7701 24.0362 2.39289 24.9828 2.39289C25.9293 2.39289 26.8371 2.7701 27.5064 3.44155C28.1757 4.11299 28.5517 5.02367 28.5517 5.97324C28.5517 6.28976 28.6771 6.59332 28.9002 6.81714C29.1233 7.04096 29.4259 7.16669 29.7414 7.16669H32.1207C32.4362 7.16669 32.7388 7.29243 32.9619 7.51625C33.185 7.74006 33.3103 8.04362 33.3103 8.36015C33.3103 8.67667 33.185 8.98023 32.9619 9.20404C32.7388 9.42786 32.4362 9.5536 32.1207 9.5536H17.8448C17.5293 9.5536 17.2267 9.42786 17.0036 9.20404C16.7805 8.98023 16.6552 8.67667 16.6552 8.36015C16.6552 8.04362 16.7805 7.74006 17.0036 7.51625C17.2267 7.29243 17.5293 7.16669 17.8448 7.16669ZM2.37931 69.2262V11.9405C2.37931 11.3075 2.62999 10.7003 3.07619 10.2527C3.5224 9.80507 4.12759 9.5536 4.75862 9.5536H14.4948C14.7399 10.2493 15.1934 10.852 15.793 11.2792C16.3927 11.7065 17.1093 11.9374 17.8448 11.9405H32.1207C32.8562 11.9374 33.5728 11.7065 34.1725 11.2792C34.7722 10.852 35.2256 10.2493 35.4708 9.5536H45.2069C45.8379 9.5536 46.4431 9.80507 46.8893 10.2527C47.3355 10.7003 47.5862 11.3075 47.5862 11.9405V39.3899H46.3966C45.9944 39.3949 45.5946 39.4519 45.2069 39.5594V25.0685C45.2068 24.752 45.0814 24.4485 44.8583 24.2247L35.3411 14.6771C35.118 14.4533 34.8155 14.3275 34.5 14.3274H5.94828C5.63276 14.3274 5.33017 14.4531 5.10706 14.677C4.88396 14.9008 4.75862 15.2043 4.75862 15.5209V68.0327C4.75862 68.3493 4.88396 68.6528 5.10706 68.8766C5.33017 69.1005 5.63276 69.2262 5.94828 69.2262H28.5517C28.5567 70.0667 28.785 70.8906 29.2132 71.6131H4.75862C4.12759 71.6131 3.5224 71.3616 3.07619 70.914C2.62999 70.4664 2.37931 69.8592 2.37931 69.2262ZM64.2414 71.6131H33.3103C32.6793 71.6131 32.0741 71.3616 31.6279 70.914C31.1817 70.4664 30.931 69.8592 30.931 69.2262V54.2114L43.7555 58.8062C44.2318 58.9737 44.7162 59.1171 45.2069 59.2358V59.6786C45.2069 60.6281 45.5829 61.5388 46.2522 62.2103C46.9215 62.8817 47.8293 63.2589 48.7759 63.2589C49.7224 63.2589 50.6302 62.8817 51.2995 62.2103C51.9688 61.5388 52.3448 60.6281 52.3448 59.6786V59.2346C52.8356 59.1168 53.32 58.9738 53.7962 58.8062L66.6207 54.2114V69.2262C66.6207 69.8592 66.37 70.4664 65.9238 70.914C65.4776 71.3616 64.8724 71.6131 64.2414 71.6131Z" fill="#90A1AE"/>
</svg>

<svg width="69" height="74" fill="none" xmlns="http://www.w3.org/2000/svg"><path d="m11.897 36.509-1.539-1.543-1.682 1.687 2.38 2.387a1.187 1.187 0 0 0 1.682 0l4.758-4.774-1.682-1.687-3.917 3.93ZM11.897 48.443 10.358 46.9l-1.682 1.688 2.38 2.387a1.188 1.188 0 0 0 1.682 0l4.758-4.774-1.682-1.688-3.917 3.93ZM11.897 60.378l-1.539-1.543-1.682 1.687 2.38 2.387a1.188 1.188 0 0 0 1.682 0l4.758-4.774-1.682-1.687-3.917 3.93ZM30.931 27.455v-7.16a1.195 1.195 0 0 0-1.19-1.194H10.707a1.188 1.188 0 0 0-1.19 1.194v7.16a1.195 1.195 0 0 0 1.19 1.194H29.74a1.188 1.188 0 0 0 1.19-1.194Zm-2.38-1.193H11.898v-4.774h16.655v4.774ZM20.224 32.23h11.897v2.386H20.224V32.23ZM20.224 37.003H35.69v2.387H20.224v-2.387ZM38.069 37.003h2.38v2.387h-2.38v-2.387ZM20.224 44.164h8.328v2.387h-8.328v-2.387ZM20.224 56.098h5.948v2.387h-5.948v-2.387Z" fill="#90A1AE"/><path d="M64.241 45.357h-8.327v-1.193c0-1.266-.502-2.48-1.394-3.376a4.75 4.75 0 0 0-3.365-1.398h-1.19V11.94c0-1.266-.5-2.48-1.393-3.375a4.751 4.751 0 0 0-3.365-1.398H35.47a3.58 3.58 0 0 0-1.298-1.726 3.561 3.561 0 0 0-2.052-.661h-1.309a5.97 5.97 0 0 0-2.065-3.433 5.936 5.936 0 0 0-7.529 0 5.97 5.97 0 0 0-2.065 3.433h-1.308a3.561 3.561 0 0 0-2.052.661 3.58 3.58 0 0 0-1.298 1.726H4.759a4.751 4.751 0 0 0-3.365 1.398A4.782 4.782 0 0 0 0 11.94v57.285c0 1.266.501 2.48 1.394 3.376A4.751 4.751 0 0 0 4.759 74H64.24a4.751 4.751 0 0 0 3.365-1.398A4.782 4.782 0 0 0 69 69.226V50.131c0-1.266-.501-2.48-1.394-3.376a4.75 4.75 0 0 0-3.365-1.398Zm2.38 4.774v1.551l-13.627 4.882c-.23.082-.466.149-.702.218-.119-.85-.54-1.63-1.186-2.193a3.545 3.545 0 0 0-4.66 0 3.566 3.566 0 0 0-1.187 2.193c-.238-.07-.476-.135-.703-.217l-13.625-4.883v-1.551c0-.633.25-1.24.697-1.688a2.375 2.375 0 0 1 1.682-.699h30.931c.631 0 1.237.252 1.683.7a2.39 2.39 0 0 1 .697 1.687Zm-16.655 7.16v2.388a1.195 1.195 0 0 1-1.19 1.193 1.188 1.188 0 0 1-1.19-1.193v-2.387a1.195 1.195 0 0 1 1.19-1.194 1.188 1.188 0 0 1 1.19 1.194ZM35.69 18.402l5.455 5.474H35.69v-5.473Zm-1.19 7.86h8.328V41.04a4.742 4.742 0 0 0-1.19 3.125v1.193H33.31a4.748 4.748 0 0 0-2.903 1.005 4.774 4.774 0 0 0-1.686 2.575h-8.497v2.387h8.328v9.548h-8.328v2.387h8.328v3.58H7.138V16.714H33.31v8.355a1.195 1.195 0 0 0 1.19 1.193Zm19.035 17.903v1.193h-9.518v-1.193c0-.633.25-1.24.697-1.688a2.376 2.376 0 0 1 1.683-.7h4.758c.631 0 1.236.252 1.683.7a2.39 2.39 0 0 1 .697 1.688ZM17.845 7.167h2.38a1.188 1.188 0 0 0 1.189-1.194c0-.95.376-1.86 1.045-2.531a3.563 3.563 0 0 1 5.047 0 3.586 3.586 0 0 1 1.046 2.531 1.195 1.195 0 0 0 1.19 1.194h2.379a1.188 1.188 0 0 1 1.19 1.193 1.195 1.195 0 0 1-1.19 1.194H17.845a1.188 1.188 0 0 1-1.19-1.194 1.195 1.195 0 0 1 1.19-1.193ZM2.379 69.227V11.94c0-.633.251-1.24.697-1.687a2.375 2.375 0 0 1 1.683-.7h9.736a3.579 3.579 0 0 0 1.298 1.726c.6.428 1.316.658 2.052.662H32.12a3.561 3.561 0 0 0 2.051-.662 3.579 3.579 0 0 0 1.299-1.725h9.736c.63 0 1.236.251 1.682.699a2.39 2.39 0 0 1 .697 1.688V39.39h-1.19a4.67 4.67 0 0 0-1.19.17V25.067c0-.316-.125-.62-.348-.843l-9.517-9.548a1.188 1.188 0 0 0-.841-.35H5.948a1.187 1.187 0 0 0-1.19 1.194v52.512a1.195 1.195 0 0 0 1.19 1.193h22.604c.005.84.233 1.665.661 2.387H4.76a2.376 2.376 0 0 1-1.683-.699 2.39 2.39 0 0 1-.697-1.688Zm61.862 2.386h-30.93a2.376 2.376 0 0 1-1.683-.699 2.39 2.39 0 0 1-.697-1.688V54.211l12.824 4.595c.477.168.961.311 1.452.43v.443c0 .95.376 1.86 1.045 2.531a3.563 3.563 0 0 0 5.047 0 3.586 3.586 0 0 0 1.046-2.531v-.444c.49-.118.975-.261 1.451-.429l12.825-4.595v15.015c0 .633-.251 1.24-.697 1.688-.446.448-1.052.7-1.683.7Z" fill="#90A1AE"/></svg>
